src/images/vector/colosseum_big.svg

<svg xmlns="http://www.w3.org/2000/svg" width="1440" height="744" fill="none">
  <g clip-path="url(#a)">
    <path fill="#fff" stroke="#000" stroke-miterlimit="10" stroke-width="12" d="m1058.18 773.628-239.513 137.32-28.207-155.16-3.797-20.923c-7.16-39.37-39.772-69.083-79.63-72.555l-34.716-3.017-38.079-138.427v-58.101l251.821-9.224 45.955-1.671 19.875 133.825 106.291 187.933Z"/>
    <path fill="#000" stroke="#000" stroke-miterlimit="10" stroke-width="12" d="M862.911 538.899v97.233h-91.563v-97.233s0-41.389 45.781-41.389c45.782 0 45.782 41.389 45.782 41.389Zm74.851 156.205h-66.047v89.853h66.047v-89.853Z"/>
    <path fill="#fff" stroke="#000" stroke-miterlimit="10" stroke-width="12" d="M1544.99 549.277c3.42 21.18-20.5 257.967-20.5 257.967l-466.31-33.617-106.291-187.933-19.875-133.825-45.955 1.671v-86.772s407.851-6.12 616.161 135.519c0 0 39.36 25.81 42.77 46.99Z"/>
    <path fill="#000" d="M1106.85 745.718V643.971s0-54.564 51.51-54.564 51.51 54.564 51.51 54.564v101.747"/>
    <path stroke="#000" stroke-miterlimit="10" stroke-width="12" d="M1106.85 745.718V643.971s0-54.564 51.51-54.564 51.51 54.564 51.51 54.564v101.747"/>
    <path fill="#000" d="M1315.26 763.097V661.63s0-54.413 43.04-54.413c43.05 0 43.05 54.413 43.05 54.413v101.467"/>
    <path stroke="#000" stroke-miterlimit="10" stroke-width="12" d="M1315.26 763.097V661.63s0-54.413 43.04-54.413c43.05 0 43.05 54.413 43.05 54.413v101.467"/>
    <path fill="#000" stroke="#000" stroke-miterlimit="10" stroke-width="12" d="m1022.32 436.161 73.96 5.86v65.48h-73.96v-71.34Zm250.94 32.795-71.31-14.324v60.119l71.31 8.595v-54.39Zm136.81 41.661-51.22-10.225v42.917l51.22 6.136v-38.828Z"/>
    <path fill="#fff" stroke="#000" stroke-miterlimit="10" stroke-width="12" d="M451.358 193.765c-95.165 13.261-381.14 113.133-530.436 266.833V320.524C5.378 173.364 308.827 36.13 371.36 22.934c62.857 101.618 79.998 170.831 79.998 170.831Z"/>
    <path fill="#fff" stroke="#000" stroke-miterlimit="10" stroke-width="12" d="M634.238 433.161v44.731c-82.841-5.013-554.232 86.166-725.078 164.039l3.588-157.348 16.346-37.607C82.433 311.996 356.185 207.029 451.35 193.768h.022l26.427-4.688a22.334 22.334 0 0 1 21.221 7.9 22.418 22.418 0 0 1 4.947 15.909l-3.711 45.947c-2.083 25.828.912 51.785 8.853 76.419l17.814 55.388 61.968-4.536a40.464 40.464 0 0 1 37.319 18.969 53.052 53.052 0 0 1 8.028 28.085Z"/>
    <path fill="#fff" stroke="#000" stroke-miterlimit="10" stroke-width="12" d="M790.462 755.787s-761.443 16.557-898.419 31.837l18.526-144.98c351.446-164.752 640.83-169.766 723.671-164.752v42.973l38.079 138.427 34.716 3.017c39.859 3.472 72.47 33.185 79.63 72.555l3.797 20.923Z"/>
    <path fill="#000" stroke="#000" stroke-miterlimit="10" stroke-width="12" d="M490.059 595.372v99.186l97.964-4.818v-96.777s0-57.471-49.579-53.239c-47.127 4.015-48.385 55.648-48.385 55.648Zm-154.59 113.771 85.271-8.465-.629-101.009s3.645-39.306-32.048-39.306c-52.594 0-50.793 50.809-50.793 50.809l-1.801 97.971Zm-66.374 11.953-.611-97.675s3.54-38.008-31.127-38.008c-51.084 0-49.334 49.132-49.334 49.132l-1.75 94.757 82.822-8.206Zm-137.304 22.487-.555-89.536s3.214-34.841-28.26-34.841c-46.378 0-44.79 45.037-44.79 45.037l-1.588 86.862 75.193-7.522ZM-66.55 788.144l75.192-7.503-.555-89.536s3.215-34.84-28.26-34.84c-46.378 0-44.79 45.037-44.79 45.037l-1.588 86.861v-.019Zm435.148-367.816v-85.73s0-46.989 38.73-46.989c41.897 0 37.449 33.663 37.449 33.663l-3.167 85.73-73.012 13.326Zm-45.71 7.62-67.306 18.427 3.168-81.932s1.909-43.82 34.282-43.82 30.485 31.123 30.485 31.123l-.629 76.202ZM202.87 457.792l-61.577 20.944 4.626-76.053s4.116-32.677 34.912-41.281c30.795-8.603 26.666 34.922 26.666 34.922l-4.627 61.446v.022ZM51.156 511.138l43.807-19.685 1.91-56.517s-2.517-24.532-20.309-19.056c-17.792 5.476-22.218 25.393-22.218 25.393l-3.19 69.865Zm-76.396-30.344-2.51 64.766 43.477-20.102 1.582-51.001S14.792 449.925-3 455.401c-17.792 5.475-22.218 25.393-22.218 25.393h-.022Z"/>
    <path fill="#fff" stroke="#000" stroke-miterlimit="16" stroke-width="12" d="m742.821 239.754-75.497-40.622 75.497 103.402 75.497-103.402-75.497 40.622Z"/>
    <path fill="#DCDCDC" d="M742.82 239.754v62.78l75.497-103.402-75.497 40.622Z" style="mix-blend-mode:darken"/>
    <path fill="#fff" stroke="#000" stroke-miterlimit="16" stroke-width="12" d="m743.128 208.35 89.476-47.947-89.476-135.156-89.476 135.156 89.476 47.947Z"/>
    <path fill="#DCDCDC" d="m743.129 208.35 89.476-47.947-89.476-135.156V208.35Z" style="mix-blend-mode:darken"/>
  </g>
  <defs>
    <clipPath id="a">
      <path fill="#fff" d="M0 0h1440v744H0z"/>
    </clipPath>
  </defs>
</svg>

<svg width="1440" height="744" viewBox="0 0 1440 744" fill="none" xmlns="http://www.w3.org/2000/svg">
<g clip-path="url(#clip0_521_37)">
<path d="M1058.18 773.628L818.667 910.948L790.46 755.788L786.663 734.865C779.503 695.495 746.891 665.782 707.033 662.31L672.317 659.293L634.238 520.866V462.765L886.059 453.541L932.014 451.87L951.889 585.695L1058.18 773.628Z" fill="white" stroke="black" stroke-width="12" stroke-miterlimit="10"/>
<path d="M862.911 538.899V636.132H771.348V538.899C771.348 538.899 771.348 497.51 817.129 497.51C862.911 497.51 862.911 538.899 862.911 538.899Z" fill="black" stroke="black" stroke-width="12" stroke-miterlimit="10"/>
<path d="M937.762 695.104H871.715V784.957H937.762V695.104Z" fill="black" stroke="black" stroke-width="12" stroke-miterlimit="10"/>
<path d="M1544.99 549.277C1548.41 570.457 1524.49 807.244 1524.49 807.244L1058.18 773.627L951.889 585.694L932.014 451.869L886.059 453.54V366.768C886.059 366.768 1293.91 360.648 1502.22 502.287C1502.22 502.287 1541.58 528.097 1544.99 549.277Z" fill="white" stroke="black" stroke-width="12" stroke-miterlimit="10"/>
<path d="M1106.85 745.718V643.971C1106.85 643.971 1106.85 589.407 1158.36 589.407C1209.87 589.407 1209.87 643.971 1209.87 643.971V745.718" fill="black"/>
<path d="M1106.85 745.718V643.971C1106.85 643.971 1106.85 589.407 1158.36 589.407C1209.87 589.407 1209.87 643.971 1209.87 643.971V745.718" stroke="black" stroke-width="12" stroke-miterlimit="10"/>
<path d="M1315.26 763.097V661.63C1315.26 661.63 1315.26 607.217 1358.3 607.217C1401.35 607.217 1401.35 661.63 1401.35 661.63V763.097" fill="black"/>
<path d="M1315.26 763.097V661.63C1315.26 661.63 1315.26 607.217 1358.3 607.217C1401.35 607.217 1401.35 661.63 1401.35 661.63V763.097" stroke="black" stroke-width="12" stroke-miterlimit="10"/>
<path d="M1022.32 436.161L1096.28 442.021V507.501H1022.32V436.161Z" fill="black" stroke="black" stroke-width="12" stroke-miterlimit="10"/>
<path d="M1273.26 468.956L1201.95 454.632V514.751L1273.26 523.346V468.956Z" fill="black" stroke="black" stroke-width="12" stroke-miterlimit="10"/>
<path d="M1410.07 510.617L1358.85 500.392V543.309L1410.07 549.445V510.617Z" fill="black" stroke="black" stroke-width="12" stroke-miterlimit="10"/>
<path d="M451.358 193.765C356.193 207.026 70.2183 306.898 -79.0781 460.598V320.524C5.37789 173.364 308.827 36.1305 371.36 22.9346C434.217 124.552 451.358 193.765 451.358 193.765Z" fill="white" stroke="black" stroke-width="12" stroke-miterlimit="10"/>
<path d="M634.238 433.161V477.892C551.397 472.879 80.006 564.058 -90.8398 641.931L-87.2518 484.583L-70.9055 446.976C82.4329 311.996 356.185 207.029 451.35 193.768H451.372L477.799 189.08C485.784 187.669 493.899 190.686 499.02 196.98C502.643 201.43 504.422 207.138 503.967 212.889L500.256 258.836C498.173 284.664 501.168 310.621 509.109 335.255L526.923 390.643L588.891 386.107C603.883 385 618.269 392.314 626.21 405.076C631.461 413.497 634.238 423.22 634.238 433.161Z" fill="white" stroke="black" stroke-width="12" stroke-miterlimit="10"/>
<path d="M790.462 755.787C790.462 755.787 29.0191 772.344 -107.957 787.624L-89.4312 642.644C262.015 477.892 551.399 472.878 634.24 477.892V520.865L672.319 659.292L707.035 662.309C746.894 665.781 779.505 695.494 786.665 734.864L790.462 755.787Z" fill="white" stroke="black" stroke-width="12" stroke-miterlimit="10"/>
<path d="M490.059 595.372V694.558L588.023 689.74V592.963C588.023 592.963 588.023 535.492 538.444 539.724C491.317 543.739 490.059 595.372 490.059 595.372Z" fill="black" stroke="black" stroke-width="12" stroke-miterlimit="10"/>
<path d="M335.469 709.143L420.74 700.678L420.111 599.669C420.111 599.669 423.756 560.363 388.063 560.363C335.469 560.363 337.27 611.172 337.27 611.172L335.469 709.143Z" fill="black" stroke="black" stroke-width="12" stroke-miterlimit="10"/>
<path d="M269.095 721.096L268.484 623.421C268.484 623.421 272.024 585.413 237.357 585.413C186.273 585.413 188.023 634.545 188.023 634.545L186.273 729.302L269.095 721.096Z" fill="black" stroke="black" stroke-width="12" stroke-miterlimit="10"/>
<path d="M131.791 743.583L131.236 654.047C131.236 654.047 134.45 619.206 102.976 619.206C56.5977 619.206 58.1857 664.243 58.1857 664.243L56.5977 751.105L131.791 743.583Z" fill="black" stroke="black" stroke-width="12" stroke-miterlimit="10"/>
<path d="M-66.5508 788.144L8.64232 780.641L8.08744 691.105C8.08744 691.105 11.3018 656.265 -20.1721 656.265C-66.5508 656.265 -64.9627 701.302 -64.9627 701.302L-66.5508 788.163V788.144Z" fill="black" stroke="black" stroke-width="12" stroke-miterlimit="10"/>
<path d="M368.598 420.328V334.598C368.598 334.598 368.598 287.609 407.328 287.609C449.225 287.609 444.777 321.272 444.777 321.272L441.61 407.002L368.598 420.328Z" fill="black" stroke="black" stroke-width="12" stroke-miterlimit="10"/>
<path d="M322.888 427.948L255.582 446.375L258.75 364.443C258.75 364.443 260.659 320.623 293.032 320.623C325.405 320.623 323.517 351.746 323.517 351.746L322.888 427.948Z" fill="black" stroke="black" stroke-width="12" stroke-miterlimit="10"/>
<path d="M202.87 457.792L141.293 478.736L145.919 402.683C145.919 402.683 150.035 370.006 180.831 361.402C211.626 352.799 207.497 396.324 207.497 396.324L202.87 457.77V457.792Z" fill="black" stroke="black" stroke-width="12" stroke-miterlimit="10"/>
<path d="M51.1562 511.138L94.9634 491.453L96.8728 434.936C96.8728 434.936 94.3562 410.404 76.564 415.88C58.7718 421.356 54.3458 441.273 54.3458 441.273L51.1562 511.138Z" fill="black" stroke="black" stroke-width="12" stroke-miterlimit="10"/>
<path d="M-25.2398 480.794L-27.7501 545.56L15.7274 525.458L17.3089 474.457C17.3089 474.457 14.7923 449.925 -2.99988 455.401C-20.7921 460.876 -25.2181 480.794 -25.2181 480.794H-25.2398Z" fill="black" stroke="black" stroke-width="12" stroke-miterlimit="10"/>
<path d="M742.821 239.754L667.324 199.132L742.821 302.534L818.318 199.132L742.821 239.754Z" fill="white" stroke="black" stroke-width="12" stroke-miterlimit="16"/>
<g style="mix-blend-mode:darken">
<path d="M742.82 239.754V302.534L818.317 199.132L742.82 239.754Z" fill="#DCDCDC"/>
</g>
<path d="M743.128 208.35L832.604 160.403L743.128 25.2471L653.652 160.403L743.128 208.35Z" fill="white" stroke="black" stroke-width="12" stroke-miterlimit="16"/>
<g style="mix-blend-mode:darken">
<path d="M743.129 208.35L832.605 160.403L743.129 25.2471V208.35Z" fill="#DCDCDC"/>
</g>
</g>
<defs>
<clipPath id="clip0_521_37">
<rect width="1440" height="744" fill="white"/>
</clipPath>
</defs>
</svg>
